X:65
T:Paganninis 2nd Hornpipe. JBu.65
O:England,South Yorkshire
S:Joshua Burnett’s MS,c1835,S.Yorkshire
M:4/4
L:1/8
Q:1/2=90
R:.hornpipe
N:Paganini toured England in 1832
Z:vmp.R.Greig.2011
K:D
“rest added”z2|D4FDAF|d2f2f2fd|cABG FDEC|D2D2D2 fe|
fdAF Adfa|ecAE FAce|(3fag (3fed cAB^G|A2A2A2:|
|:”rest added”z2|A4cAec|g2g2g2e2|(3fag (3fed (3ced (3cBA|(3GBA (3GFE D2C2|
D2f2afdf|E2e2gece|(3Bdc (3BAG FDEC|D2D2D2:|

